X:289
T:Reel 289
M:4/4
K:Gmaj
L:1/8
B>A (3BAG A2dc|B>G (3GGG d2cA|B>c (3BAG A>G (3FDA |GcAc BGGd|f<d (3dAd e2dB|A>A (3AAA e2Ac|BdAF GABc| (3def ed d2Bd|ABcd e2ed|gfge dBGB|ABcd e2eB|gfge dBGB|ABcB A2GA|BcBA G2 (3Bcd |ef (3gfe f2ed| (3efg dB cAAA|
